X:1
T:Miserere Mei, 48.84
T:Miserere Mei, 48.84
T:From “Seven Sobs of a Sorrowful Soul,” 1585
T:Public Domain Courtesy of the Cyber Hymnal™
C:From “Seven Sobs of a Sorrowful Soul,” 1585
Z:Public Domain
Z:Courtesy of the Cyber Hymnal™
%%score ( 1 2 ) ( 3 4 )
L:1/8
Q:1/4=110
M:none
K:Bb
V:1 treble 
V:2 treble 
V:3 bass 
V:4 bass 
V:1
 [GB]4 [EA]2 [EG]2 | [D^F]3 [DG] [EA]2 [Gc]2 | [G=B]2 [DG]2 [EA]2 A2 | [=B,G]8 | [B,G]4 [DF]2 G2 | %5
 [FA]2 [FA]2 [Bd]2 ([Ac][GB]) | [^FA]4 G4 | [Gc]4 [^FA]4 | G8 |] %9
V:2
 x8 | x8 | x6 (DC) | x8 | x6 (D=E) | x8 | x4 G4 | x8 | G8 |] %9
V:3
 [G,,D]4 [C,C]2 [C,B,]2 | [D,A,]3 [B,,G,] [C,G,]2 [E,G,]2 | [D,D]2 [=B,,G,]2 [C,G,]2 [D,^F,]2 | %3
 [G,,G,]8 | G,4 [D,A,]2 [G,B,]2 | [F,C]2 [F,C]2 [B,,F]2 [C,E]2 | [D,A,]4 [B,,D]4 | [C,E]4 (D2 C2) | %8
 [G,,B,]8 |] %9
V:4
 x8 | x8 | x8 | x8 | G,4 x4 | x8 | x8 | x4 D,4 | x8 |] %9

